!!!COM:	Martini, Johannes
!!!CDT:	~1440///-~1497//
!!!OTL:	Domini est terra
!!!AGN:	Motet
!!!SCT:	Mar2040
!!!SCA:	Mar2040
!!!voices:	3
**kern	**kern	**kern
*staff3	*staff2	*staff1
*Ivox	*Ivox	*Ivox
*I"Tenor	*I"Faulx bourdon	*I"Superius
*I'T	*I'Fb	*I'S
*>[A,B,C,D,E,F,G,H,I,J]	*>[A,B,C,D,E,F,G,H,I,J]	*>[A,B,C,D,E,F,G,H,I,J]
*>A	*>A	*>A
*clefGv2	*clefGv2	*clefG2
*k[]	*k[]	*k[]
*M2/1	*M2/1	*M2/1
*met(C)	*met(C)	*met(C)
=1-	=1-	=1-
!!LO:TX:Z=8:t=Choir 1
!!section: Orbis terrarum
!!!OMD: Orbis terrarum
1e	1g	1cc
1e	1g	1cc
=2	=2	=2
2e\	2g\	2cc\
2e\	2g\	2cc\
1e	1g	1cc
=3	=3	=3
1e	1g	1cc
2d\	2f\	2b\
2c\	2e\	2a/
=4	=4	=4
1d	1f	1b
[1e	[1g	[1cc
=5	=5	=5
2e\]	2g\]	2cc\]
2e\	2g\	2cc\
1f	1a	1dd
=6	=6	=6
2e\	2g\	2cc\
2c\	2e\	2a/
2d\	2f\	2b\
[2e\	[2g\	[2cc\
=7	=7	=7
2e\]	2g\]	2cc\]
4d\	4f\	4b\
4c\	4e\	4a/
2B\	2d\	2g/
2A/	[2e\	[2a/
=8	=8	=8
1B	2e\]	2a/]
.	2d\	2g#i/
1Al	1el	1al
=9||	=9||	=9||
*>B	*>B	*>B
!!section: Quia ipse
!!!OMD: Quia ipse
!!LO:TX:Z=8:t=Choir 2
1e	0r	1cc
1e	.	1cc
=10	=10	=10
1e	0r	1cc
1e	.	1cc
=11	=11	=11
2e\	0r	2cc\
2e\	.	2cc\
2e\	.	2cc\
2e\	.	2cc\
=12	=12	=12
1e	0r	1cc
1e	.	1cc
=13	=13	=13
2d\	0r	2b\
2e\	.	2cc\
1f	.	1dd
=14	=14	=14
1c	0r	1cc
1r	.	1r
=15	=15	=15
1e	0r	1cc
2e\	.	2cc\
2e\	.	2cc\
=16	=16	=16
2e\	0r	2cc\
2e\	.	2cc\
1e	.	1cc
=17	=17	=17
1e	0r	1cc
1d	.	1b
=18	=18	=18
2e\	0r	2cc\
2f\	.	2.dd\
2.d\	.	.
.	.	4cc\
.	.	4b\
4c\	.	4a/
=19	=19	=19
2B\	0r	2g/
2A/	.	1a
1B	.	.
.	.	2g#i/
=20	=20	=20
0Al	0r	0al
=21||	=21||	=21||
*>C	*>C	*>C
!!section: Quis ascendet
!!!OMD: Quis ascendet
!!LO:TX:Z=8:t=Choir 1
1e	1g	1cc
2e\	2g\	2cc\
2e\	2g\	2cc\
=22	=22	=22
1e	1g	1cc
1e	1g	1cc
=23	=23	=23
2d\	2f\	2b\
2c\	2e\	2a/
2B\	2d\	2g/
2c\	[2g\	[2cc\
=24	=24	=24
1d	2g\]	2cc\]
.	2f\	2b\
1c	1g	1cc
=25	=25	=25
1r	1r	1r
1e	1g	1cc
=26	=26	=26
2e\	2g\	2cc\
2e\	2g\	2cc\
1e	1g	1cc
=27	=27	=27
2e\	2g\	2cc\
2e\	2g\	2cc\
1e	1g	1cc
=28	=28	=28
1f	1a	1dd
2e\	2g\	2cc\
2c\	2e\	2a/
=29	=29	=29
2d\	2f\	2b\
1e	1g	1cc
2c\	[2e\	[2a/
=30	=30	=30
1B	2e\]	2a/]
.	2d\	2g#i/
1Al	1el	1al
=31||	=31||	=31||
*>D	*>D	*>D
!!LO:TX:Z=8:t=Choir 2
!!section: Innocens manibus
!!!OMD: Innocens manibus
1e	0r	1cc
1e	.	1cc
=32	=32	=32
1e	0r	1cc
2e\	.	2cc\
2e\	.	2cc\
=33	=33	=33
1e	0r	1cc
1e	.	1cc
=34	=34	=34
2e\	0r	2cc\
2e\	.	2cc\
1e	.	1cc
=35	=35	=35
1d	0r	1b
1r	.	1r
=36	=36	=36
1e	0r	1cc
1e	.	1cc
=37	=37	=37
2e\	0r	2cc\
2e\	.	2cc\
1e	.	1cc
=38	=38	=38
2e\	0r	2cc\
2e\	.	2cc\
1e	.	1cc
=39	=39	=39
1e	0r	1cc
2d\	.	2b\
2e\	.	2cc\
=40	=40	=40
1f	0r	1dd
1c	.	1cc
=41	=41	=41
1r	0r	1r
1e	.	1cc
=42	=42	=42
2e\	0r	2cc\
2e\	.	2cc\
1e	.	1cc
=43	=43	=43
2e\	0r	2cc\
2e\	.	2cc\
1e	.	1cc
=44	=44	=44
1e	0r	1cc
2e\	.	2cc\
2f\	.	[2dd\
=45	=45	=45
2.d\	0r	4dd\]
.	.	4cc\
.	.	4b\
4c\	.	4a/
2B\	.	2g/
2A/	.	[2a/
=46	=46	=46
1B	0r	2a/]
.	.	2g#i/
1Al	.	1al
=47||	=47||	=47||
*>E	*>E	*>E
!!section: Hic accipiet
!!!OMD: Hic accipiet
!!LO:TX:Z=8:t=Choir 1
1e	1g	1cc
1e	1g	1cc
=48	=48	=48
2e\	2g\	2cc\
2e\	2g\	2cc\
1e	1g	1cc
=49	=49	=49
2e\	2g\	2cc\
2e\	2g\	2cc\
2e\	2g\	2cc\
2e\	2g\	2cc\
=50	=50	=50
1e	1g	1cc
[1e	[1g	[1cc
=51	=51	=51
2e\]	2g\]	2cc\]
1f	1a	1dd
2e\	[2g\	[2cc\
=52	=52	=52
1d	2g\]	2cc\]
.	2f\	2b\
1c	1g	1cc
=53	=53	=53
1r	1r	1r
1e	1g	1cc
=54	=54	=54
1e	1g	1cc
2e\	2g\	2cc\
2e\	2g\	2cc\
=55	=55	=55
2e\	2g\	2cc\
2e\	2g\	2cc\
1e	1g	1cc
=56	=56	=56
2e\	2g\	2cc\
2e\	2g\	2cc\
1e	1g	1cc
=57	=57	=57
2e\	2g\	2cc\
2e\	2g\	2cc\
1f	1a	1dd
=58	=58	=58
2d\	2f\	2b\
1e	1g	1cc
4d\	4f\	4b\
4c\	4e\	4a/
=59	=59	=59
2B\	2d\	2g/
2A/	1e	1a
1B	.	.
.	2d\	2g#i/
=60	=60	=60
0Al	0el	0al
=61||	=61||	=61||
*>F	*>F	*>F
!!section: Hec est generatio
!!!OMD: Hec est generatio
!!LO:TX:Z=8:t=Choir 2
1e	0r	1cc
1e	.	1cc
=62	=62	=62
2e\	0r	2cc\
2e\	.	2cc\
2e\	.	2cc\
2e\	.	2cc\
=63	=63	=63
1c	0r	1cc
2e\	.	2cc\
2e\	.	2cc\
=64	=64	=64
2e\	0r	2cc\
2e\	.	2cc\
1f	.	1dd
=65	=65	=65
1c	0r	1cc
1r	.	1r
=66	=66	=66
1e	0r	1cc
2e\	.	2cc\
2e\	.	2cc\
=67	=67	=67
1e	0r	1cc
2e\	.	2cc\
2e\	.	2cc\
=68	=68	=68
1e	0r	1cc
[1e	.	1cc
=69	=69	=69
2e\]	0r	2cc\
2f\	.	2.dd\
2.d\	.	.
.	.	4cc\
.	.	4b\
4c\	.	4a/
=70	=70	=70
2B\	0r	2g/
2A/	.	1a
1B	.	.
.	.	2g#i/
=71	=71	=71
0Al	0r	0al
=72||	=72||	=72||
*>G	*>G	*>G
!!section: Attollite portas
!!!OMD: Attollite portas
!!LO:TX:Z=8:t=Choir 1
1e	1g	1cc
2e\	2g\	2cc\
2e\	2g\	2cc\
=73	=73	=73
2e\	2g\	2cc\
2e\	2g\	2cc\
1e	1g	1cc
=74	=74	=74
2e\	2g\	2cc\
2e\	2g\	2cc\
1e	1g	1cc
=75	=75	=75
1e	1g	1cc
1d	1f	1b
=76	=76	=76
2r	2r	2r
2e\	2g\	2cc\
2e\	2g\	2cc\
2e\	2g\	2cc\
=77	=77	=77
2e\	2g\	2cc\
2e\	2g\	2cc\
1e	1g	1cc
=78	=78	=78
1d	1f	1b
2c\	2e\	2a/
2d\	2f\	2b\
=79	=79	=79
2e\	2g\	2cc\
1f	1a	1dd
2e\	[2g\	[2cc\
=80	=80	=80
1d	2g\]	2cc\]
.	2f\	2b\
1c	1g	1cc
=81	=81	=81
1r	1r	1r
2e\	2g\	2cc\
2e\	2g\	2cc\
=82	=82	=82
2e\	2g\	2cc\
2e\	2g\	2cc\
1e	1g	1cc
=83	=83	=83
1f	1a	1dd
2e\	2g\	2cc\
[2d\	[2f\	[2b\
=84	=84	=84
2d\]	2f\]	2b\]
2c\	1e	1a
1B	.	.
.	2d\	2g#i/
=85	=85	=85
0Al	0el	0al
=86||	=86||	=86||
*>H	*>H	*>H
!!section: Quis est iste rex glorie? Dominus fortis
!!!OMD: Quis est iste rex glorie? Dominus fortis
!!LO:TX:Z=8:t=Choir 2
1e	0r	1cc
2e\	.	2cc\
2e\	.	2cc\
=87	=87	=87
1e	0r	1cc
1e	.	1cc
=88	=88	=88
2e\	0r	2cc\
1f	.	1dd
2e\	.	[2cc\
=89	=89	=89
1d	0r	2cc\]
.	.	2b\
1c	.	1cc
=90	=90	=90
1r	0r	1r
2e\	.	2cc\
2e\	.	2cc\
=91	=91	=91
1e	0r	1cc
1e	.	1cc
=92	=92	=92
2d\	0r	2b\
2c\	.	2a/
1d	.	1b
=93	=93	=93
1c	0r	1cc
1r	.	1r
=94	=94	=94
2e\	0r	2cc\
2e\	.	2cc\
1e	.	1cc
=95	=95	=95
1e	0r	1cc
2e\	.	2cc\
[2f\	.	[2dd\
=96	=96	=96
2f\]	0r	2dd\]
2e\	.	2cc\
2d\	.	2b\
[2e\	.	[2cc\
=97	=97	=97
2e\]	0r	2cc\]
4d\	.	4b\
4c\	.	4a/
2B\	.	2g/
2A/	.	[2a/
=98	=98	=98
1B	0r	2a/]
.	.	2g#i/
1Al	.	1al
=99||	=99||	=99||
*>I	*>I	*>I
!!section: Attollite portas
!!!OMD: Attollite portas
!!LO:TX:Z=8:t=Choir 1
1e	1g	1cc
2e\	2g\	2cc\
2e\	2g\	2cc\
=100	=100	=100
2e\	2g\	2cc\
2e\	2g\	2cc\
1e	1g	1cc
=101	=101	=101
2e\	2g\	2cc\
2e\	2g\	2cc\
1e	1g	1cc
=102	=102	=102
1e	1g	1cc
1d	1f	1b
=103	=103	=103
2r	2r	2r
2e\	2g\	2cc\
2e\	2g\	2cc\
2e\	2g\	2cc\
=104	=104	=104
2e\	2g\	2cc\
2e\	2g\	2cc\
1e	1g	1cc
=105	=105	=105
1d	1f	1b
2c\	2e\	2a/
2d\	2f\	2b\
=106	=106	=106
2e\	2g\	2cc\
1f	1a	1dd
2e\	[2g\	[2cc\
=107	=107	=107
1d	2g\]	2cc\]
.	2f\	2b\
1c	1g	1cc
=108	=108	=108
1r	1r	1r
2e\	2g\	2cc\
2e\	2g\	2cc\
=109	=109	=109
2e\	2g\	2cc\
2e\	2g\	2cc\
1e	1g	1cc
=110	=110	=110
1f	1a	1dd
2e\	2g\	2cc\
[2d\	[2f\	[2b\
=111	=111	=111
2d\]	2f\]	2b\]
2c\	1e	1a
1B	.	.
.	2d\	2g#i/
=112	=112	=112
0Al	0el	0al
=113||	=113||	=113||
*>J	*>J	*>J
!!LO:TX:Z=8:t=Choir 2
!!section: Quis est iste rex glorie? Dominus virtutum
!!!OMD: Quis est iste rex glorie? Dominus virtutum
2e\	0r	2cc\
2e\	.	2cc\
2e\	.	2cc\
[2e\	.	[2cc\
=114	=114	=114
2e\]	0r	2cc\]
1e	.	1cc
[2f\	.	[2dd\
=115	=115	=115
2f\]	0r	2dd\]
2e\	.	1cc
1d	.	.
.	.	2b\
=116	=116	=116
1c	0r	1cc
1r	.	1r
=117	=117	=117
2e\	0r	2cc\
2e\	.	2cc\
1e	.	1cc
=118	=118	=118
2e\	0r	2cc\
2e\	.	2cc\
1e	.	1cc
=119	=119	=119
2e\	0r	2cc\
2e\	.	2cc\
1e	.	1cc
=120	=120	=120
1f	0r	1dd
2e\	.	2cc\
2c\	.	2a/
=121	=121	=121
2d\	0r	2b\
1e	.	1cc
2c\	.	[2a/
=122	=122	=122
1B	0r	2a/]
.	.	2g#i/
2A/	.	1a
2c\	.	.
=123	=123	=123
2d\	0r	2b\
1e	.	1cc
2d\	.	[2b\
=124	=124	=124
1c	0r	2b\]
.	.	2a/
1Bl	.	1bl
==	==	==
*-	*-	*-
!!!RDF**kern: l=long note in original notation
!!!RDF**kern: i=editorial accidental
!!!ENC:	Chris Gage 03-26-2014
!!!END:	2014/10/07/
!!!EED:	Jesse Rodin
!!!EEV:	2014/10/17/
!!!ONB:	Translated from MusicXML and edited on 2014/10/17/ by Craig Sapp
!!muse2ps: C^@{COM}^i2I150v85,85,150Q16
